packages/icons/raw/imported/MapsPinAdd.svg

<svg width="32" height="32" viewBox="0 0 32 32" fill="none" xmlns="http://www.w3.org/2000/svg">
<path d="M13 14C12.7239 14 12.5 14.2239 12.5 14.5C12.5 14.7761 12.7239 15 13 15V14ZM19 15C19.2761 15 19.5 14.7761 19.5 14.5C19.5 14.2239 19.2761 14 19 14V15ZM16.5 11.5C16.5 11.2239 16.2761 11 16 11C15.7239 11 15.5 11.2239 15.5 11.5H16.5ZM15.5 17.5C15.5 17.7761 15.7239 18 16 18C16.2761 18 16.5 17.7761 16.5 17.5H15.5ZM16 25.5L15.6956 25.8966C15.8751 26.0345 16.1249 26.0345 16.3044 25.8966L16 25.5ZM13 15H19V14H13V15ZM15.5 11.5L15.5 17.5H16.5L16.5 11.5H15.5ZM23 13.5828C23 16.4773 21.2262 19.3394 19.3688 21.528C18.4491 22.6117 17.528 23.508 16.8365 24.1334C16.4911 24.4458 16.2038 24.6899 16.0038 24.8552C15.9038 24.9378 15.8257 25.0006 15.7731 25.0424C15.7468 25.0634 15.7269 25.079 15.7138 25.0892C15.7073 25.0943 15.7024 25.0981 15.6994 25.1004C15.6978 25.1016 15.6968 25.1024 15.6961 25.1029C15.6958 25.1032 15.6956 25.1033 15.6955 25.1034C15.6954 25.1035 15.6955 25.1034 15.6954 25.1035C15.6955 25.1034 15.6956 25.1034 16 25.5C16.3044 25.8966 16.3046 25.8965 16.3047 25.8964C16.3048 25.8963 16.305 25.8962 16.3052 25.8961C16.3056 25.8958 16.306 25.8954 16.3066 25.895C16.3078 25.894 16.3094 25.8928 16.3115 25.8912C16.3157 25.888 16.3216 25.8834 16.3292 25.8774C16.3445 25.8654 16.3667 25.848 16.3954 25.8252C16.4526 25.7797 16.5357 25.7129 16.6407 25.6261C16.8509 25.4524 17.1496 25.1986 17.5073 24.8751C18.222 24.2286 19.1759 23.3006 20.1312 22.1751C22.0238 19.9451 24 16.8487 24 13.5828H23ZM16 25.5C16.3044 25.1034 16.3045 25.1034 16.3046 25.1035C16.3045 25.1034 16.3046 25.1035 16.3045 25.1034C16.3044 25.1033 16.3042 25.1032 16.3039 25.1029C16.3032 25.1024 16.3022 25.1016 16.3006 25.1004C16.2976 25.0981 16.2927 25.0943 16.2862 25.0892C16.2731 25.079 16.2532 25.0634 16.2269 25.0424C16.1743 25.0006 16.0962 24.9378 15.9962 24.8552C15.7962 24.6899 15.5089 24.4458 15.1635 24.1334C14.472 23.508 13.5509 22.6117 12.6312 21.528C10.7738 19.3394 9 16.4773 9 13.5828H8C8 16.8487 9.97621 19.9451 11.8688 22.1751C12.8241 23.3006 13.778 24.2286 14.4927 24.8751C14.8504 25.1986 15.1491 25.4524 15.3593 25.6261C15.4643 25.7129 15.5474 25.7797 15.6046 25.8252C15.6333 25.848 15.6555 25.8654 15.6708 25.8774C15.6784 25.8834 15.6843 25.888 15.6885 25.8912C15.6906 25.8928 15.6922 25.894 15.6934 25.895C15.694 25.8954 15.6944 25.8958 15.6948 25.8961C15.695 25.8962 15.6952 25.8963 15.6953 25.8964C15.6954 25.8965 15.6956 25.8966 16 25.5ZM9 13.5828C9 9.97381 12.1067 7 16 7V6C11.6091 6 8 9.36838 8 13.5828H9ZM16 7C19.8933 7 23 9.97381 23 13.5828H24C24 9.36838 20.3909 6 16 6V7Z" fill="black"/>
</svg>

<svg width="32" height="32" fill="none" xmlns="http://www.w3.org/2000/svg"><path d="M13 14a.5.5 0 0 0 0 1v-1Zm6 1a.5.5 0 0 0 0-1v1Zm-2.5-3.5a.5.5 0 0 0-1 0h1Zm-1 6a.5.5 0 0 0 1 0h-1Zm.5 8-.304.397a.5.5 0 0 0 .608 0L16 25.5ZM13 15h6v-1h-6v1Zm2.5-3.5v6h1v-6h-1Zm7.5 2.083c0 2.894-1.774 5.756-3.631 7.945a27.99 27.99 0 0 1-3.365 3.327 15.806 15.806 0 0 1-.305.245l-.003.003.304.397c.304.397.305.396.305.396l.002-.001.005-.004.017-.014.066-.052a25.901 25.901 0 0 0 1.112-.95 29.023 29.023 0 0 0 2.624-2.7C22.024 19.945 24 16.85 24 13.583h-1ZM16 25.5c.304-.397.305-.397.305-.396l-.001-.001-.003-.003a1.746 1.746 0 0 1-.074-.058 24.934 24.934 0 0 1-1.063-.909 27.99 27.99 0 0 1-2.533-2.605C10.774 19.339 9 16.478 9 13.583H8c0 3.266 1.976 6.362 3.869 8.592a29.023 29.023 0 0 0 3.49 3.451c.105.087.188.154.246.2.028.022.05.04.066.051l.018.014.004.004.002.001L16 25.5ZM9 13.583C9 9.973 12.107 7 16 7V6c-4.39 0-8 3.368-8 7.583h1ZM16 7c3.893 0 7 2.974 7 6.583h1C24 9.368 20.39 6 16 6v1Z" fill="#000"/></svg>
